X: 1
T: Mrs. Mary Stoker
C: Muriel A Johnstone
R: Strathspey
%Q: 128
K: G
M: 4/4
L: 1/16
B2c2 |\
d4 g3d BG3 G3B | c3B A2G2 E4 D4 | D3E G2A2 B4 B2d2 | ((3efg) d3B A4 d4 | 
d4 g3d BG3 G3B | c3B A2G2 E4 E2G2 | D3E G2A2 B4 g2e2 | dB3 A3G G4 G3F | 
E4 ((3EFG) D4 DG3 | A3G A2B2 d6e2 | d4 B2A2 G4 G2B2 | c3B A2G2 E4 D4 | 
d4 g3d BG3 G3B | c3B A2G2 E4 E2G2 | D3E G2A2 B4 g2e2 | dB3 A3G G4 :| 
